src/next/cmd/sc_dbtableopen.svg

<svg height="16" viewBox="0 0 16 16" width="16" xmlns="http://www.w3.org/2000/svg" xmlns:xlink="http://www.w3.org/1999/xlink"><clipPath id="a"><rect height="40.457153" rx="4" width="80.914307" x="30.971436" y="939.09216"/></clipPath><filter id="b"><feGaussianBlur stdDeviation="2.4"/></filter><linearGradient id="c" gradientTransform="matrix(.1133598 0 0 .1691546 .642795 -76.95463)" gradientUnits="userSpaceOnUse" x1="399.77466" x2="399.77466" y1="681.00012" y2="549.33234"><stop offset="0" stop-color="#cbcbcd"/><stop offset=".5" stop-color="#e0e0e2"/><stop offset="1" stop-color="#fff"/></linearGradient><linearGradient id="d" gradientUnits="userSpaceOnUse" x1="8" x2="8" y1="5" y2="15"><stop offset="0" stop-color="#5678c8"/><stop offset=".94117647" stop-color="#3f59ae"/><stop offset="1" stop-color="#3d7cdb"/></linearGradient><linearGradient id="e" gradientUnits="userSpaceOnUse" x1="5.5" x2="5.5" y1="12" y2="13"><stop offset="0" stop-color="#174072"/><stop offset="1" stop-color="#174072" stop-opacity="0"/></linearGradient><linearGradient id="f" gradientUnits="userSpaceOnUse" x1="9" x2="9" y1="-1" y2="10"><stop offset="0" stop-color="#102134"/><stop offset="1" stop-color="#102134" stop-opacity="0"/></linearGradient><filter id="g" color-interpolation-filters="sRGB" height="1.267833" width="1.129187" x="-.064594" y="-.133917"><feGaussianBlur stdDeviation="3.1247207"/></filter><linearGradient id="h" gradientUnits="userSpaceOnUse" x1=".37741" x2=".37741" y1="5.214652" y2="3.309088"><stop offset="0" stop-color="#34608f"/><stop offset="1" stop-color="#34608f" stop-opacity="0"/></linearGradient><linearGradient id="i" gradientTransform="matrix(.21345221 0 0 .1138394 -11.411169 -103.22724)" gradientUnits="userSpaceOnUse" x1="124.01234" x2="124.01234" y1="966.51019" y2="935.34326"><stop offset="0"/><stop offset="1" stop-color="#34608f" stop-opacity="0"/></linearGradient><linearGradient id="j" gradientUnits="userSpaceOnUse" x1="55" x2="55" y1="1036.4132" y2="1032.4822"><stop offset="0" stop-color="#003d7b"/><stop offset="1" stop-color="#003d7b" stop-opacity="0"/></linearGradient><filter id="k" color-interpolation-filters="sRGB" height="1.697208" width="1.027888" x="-.013944" y="-.348604"><feGaussianBlur stdDeviation=".70882694"/></filter><filter id="l" color-interpolation-filters="sRGB" height="1.869989" width="1.027669" x="-.013834" y="-.434994"><feGaussianBlur stdDeviation=".70324038"/></filter><g transform="matrix(.125 0 0 .125 0 -1)"><path d="m85.480617 232.8761h116.296063c1.02599 0 1.85197.97507 1.85197 2.18627v107.05603c0 1.21119-.82598 2.18627-1.85197 2.18627h-116.296063c-1.025991 0-1.85197-.97508-1.85197-2.18627v-107.05603c0-1.2112.825979-2.18627 1.85197-2.18627z" filter="url(#b)" opacity=".5" transform="matrix(1 0 0 .9333333 -79.62865 -205.35102)"/><path d="m7.999997 16h112.000003v96h-112.000003z" fill="url(#c)"/><path d="m78.20266 37.61897v-2.7448z" fill="#fff" fill-opacity=".756881"/><path d="m8 48h112v64h-112z" fill="#fff"/><g fill="#cacacc"><path d="m7.999997 88h112.000003v8h-112.000003z"/><path d="m7.999997 64h112.000003v8h-112.000003z"/><path d="m40 48h8v64h-8z"/><path d="m80 48h8v64h-8z"/></g></g><path d="m-14.991243 21.139915 82.000024.000005c2.216 0 4 .8652 4 1.94 0 1.0747-1.78433 1.902-4 1.94-36.945183.6329-42.703067.778195-82.000024-.000005-2.215566-.044-4-.8653-4-1.94 0-1.0748 1.784-1.94 4-1.94z" filter="url(#l)" opacity=".554286" transform="matrix(.125 0 0 .125 6.748904 12.35751)"/><rect fill="url(#j)" filter="url(#k)" height="1.952052" opacity=".577143" rx="2.439995" ry="0" transform="matrix(.125 0 0 .25614775 -.125 -251.09298)" width="92" x="33" y="1038.8262"/><path d="m4.5 5c-.5 0-.5.3826937-.5.5v1.5l-.0000001 2.9999993c0 .5539997.446.9999997 1 .9999997l10.0000001.000001c.554 0 1-.446 1-1v-2.9999993c0-.554-.446-.9999999-1-1l-5.0957031-.0000007c-.084201-.4859507-.178001-1-.4042969-1z" fill="#3b6ca9"/><path d="m4.9999999 5.9999993h3v.9999999h-3z" fill="#fcf9e9"/><path d="m4.4999999 4.9999993c-.5 0-.5.3826937-.5.5v1.5 3c0 .5539997.446.9999997 1 .9999997v-3.9999997-1h3.8828125c.013345.068527.023996.094239.037109.1699219.082673.4792195.4980774.8295107.9843754.8300781h1.0957032l4 .0000007v4c.554 0 1-.446 1-1v-3c0-.554-.446-.9999999-1-1l-5.0957032-.0000007c-.084201-.4859507-.178001-1-.4042969-1z" fill="url(#f)" opacity=".25"/><path d="m7 6h1v.9999999h-1z" fill="#fbc66d"/><path clip-path="url(#a)" d="m52.642896 969.59356-21.67146-.15854v43.84898l80.914314-.02v-47.08616c0-2.54081-2.05959-4.58387-4.62097-4.58387l-42.621884-.00001c-9.375263 0-5.067235 7.84799-12 8z" fill="#16375b" fill-opacity=".801471" filter="url(#g)" transform="matrix(.14830504 0 0 .14830504 -.59322 -134.2721)"/><path d="m4.9999999 9.9999993h2.5l1-1 6.5000001.0000007c.554.0000001 1 .446 1 1v4c0 .554-.446 1-1 1l-10.0000001-.000001c-.554 0-1-.446-1-1v-3c0-.554.5673986-1.3460808 1-.9999997z" fill="url(#d)"/><path d="m8.4999999 8.9999993-1 1h-2.5c-.554 0-1 .4459997-1 .9999997v1c0-.554.5673987-1.346081 1-1h2.5l1-.9999997 6.5000001.0000007c.554 0 1 .446 1 1v-1c0-.554-.446-1-1-1z" fill="#a4c0e8"/><path d="m3.9999999 11.999999 12.0000001.000001v1l-12.0000001-.000001z" fill="#385da4"/><path d="m3.9999999 11.999999h7.0000001l5 .000001v1l-12.0000001-.000001z" fill="url(#e)"/><path d="m3.9999999 12.999999 12.0000001.000001v.5l-12.0000001-.000001z" fill="#a4c0e8"/><path d="m4.9999999 9.9999993c-.5505375 0-.9925198.4410517-.9980469.9902347v3.019531c.00023.02285.011948.042.013672.06445.038109.321065.7510484.923754.984375.925784.0003916.000003.00156 0 .00195 0v-4.9999997z" fill="url(#h)" opacity=".594286"/><path d="m15 9v6c.554 0 1-.446 1-1v-4c0-.554-.446-1-1-1z" fill="url(#i)" opacity=".405714"/></svg>

<?xml version="1.0" encoding="UTF-8" standalone="no"?>
<svg
   xmlns:dc="http://purl.org/dc/elements/1.1/"
   xmlns:cc="http://creativecommons.org/ns#"
   xmlns:rdf="http://www.w3.org/1999/02/22-rdf-syntax-ns#"
   xmlns:svg="http://www.w3.org/2000/svg"
   xmlns="http://www.w3.org/2000/svg"
   xmlns:xlink="http://www.w3.org/1999/xlink"
   xmlns:sodipodi="http://sodipodi.sourceforge.net/DTD/sodipodi-0.dtd"
   xmlns:inkscape="http://www.inkscape.org/namespaces/inkscape"
   height="16"
   viewBox="0 0 16 16"
   width="16"
   version="1.1"
   id="svg145"
   sodipodi:docname="sc_dbtableopen.svg"
   inkscape:version="0.92.4 (unknown)"
   inkscape:export-filename="/home/rizmut/Dokumen/Rizmut/Github/libreoffice-style-karasa-jaga/build/next/cmd/sc_dbtableopen.png"
   inkscape:export-xdpi="96"
   inkscape:export-ydpi="96">
  <metadata
     id="metadata151">
    <rdf:RDF>
      <cc:Work
         rdf:about="">
        <dc:format>image/svg+xml</dc:format>
        <dc:type
           rdf:resource="http://purl.org/dc/dcmitype/StillImage" />
        <dc:title></dc:title>
      </cc:Work>
    </rdf:RDF>
  </metadata>
  <defs
     id="defs149">
    <clipPath
       clipPathUnits="userSpaceOnUse"
       id="clipPath961">
      <rect
         id="rect963"
         y="939.09216"
         x="30.971436"
         width="80.914307"
         rx="4"
         height="40.457153"
         style="stroke-width:1" />
    </clipPath>
    <filter
       id="a-3">
      <feGaussianBlur
         stdDeviation="2.4"
         id="feGaussianBlur2" />
    </filter>
    <linearGradient
       id="b-6"
       gradientTransform="matrix(0.1133598,0,0,0.1691546,0.642795,-76.95463)"
       gradientUnits="userSpaceOnUse"
       x1="399.77466"
       x2="399.77466"
       y1="681.00012"
       y2="549.33234">
      <stop
         offset="0"
         stop-color="#cbcbcd"
         id="stop5" />
      <stop
         offset=".5"
         stop-color="#e0e0e2"
         id="stop7" />
      <stop
         offset="1"
         stop-color="#fff"
         id="stop9-7" />
    </linearGradient>
  </defs>
  <sodipodi:namedview
     pagecolor="#ffffff"
     bordercolor="#666666"
     borderopacity="1"
     objecttolerance="10"
     gridtolerance="10"
     guidetolerance="10"
     inkscape:pageopacity="0"
     inkscape:pageshadow="2"
     inkscape:window-width="1366"
     inkscape:window-height="714"
     id="namedview147"
     showgrid="true"
     inkscape:snap-smooth-nodes="true"
     inkscape:zoom="30.125"
     inkscape:cx="8"
     inkscape:cy="8"
     inkscape:window-x="0"
     inkscape:window-y="28"
     inkscape:window-maximized="1"
     inkscape:current-layer="svg145">
    <inkscape:grid
       type="xygrid"
       id="grid958" />
  </sodipodi:namedview>
  <linearGradient
     id="a"
     gradientUnits="userSpaceOnUse"
     x1="8"
     x2="8"
     y1="5"
     y2="15">
    <stop
       offset="0"
       stop-color="#5678c8"
       id="stop2" />
    <stop
       offset=".94117647"
       stop-color="#3f59ae"
       id="stop4" />
    <stop
       offset="1"
       stop-color="#3d7cdb"
       id="stop6" />
  </linearGradient>
  <linearGradient
     id="b"
     gradientUnits="userSpaceOnUse"
     x1="5.5"
     x2="5.5"
     y1="12"
     y2="13">
    <stop
       offset="0"
       stop-color="#174072"
       id="stop9" />
    <stop
       offset="1"
       stop-color="#174072"
       stop-opacity="0"
       id="stop11" />
  </linearGradient>
  <linearGradient
     id="c"
     gradientUnits="userSpaceOnUse"
     x1="9"
     x2="9"
     y1="-1"
     y2="10">
    <stop
       offset="0"
       stop-color="#102134"
       id="stop14" />
    <stop
       offset="1"
       stop-color="#102134"
       stop-opacity="0"
       id="stop16" />
  </linearGradient>
  <filter
     id="d"
     color-interpolation-filters="sRGB"
     height="1.267833"
     width="1.129187"
     x="-.064594"
     y="-.133917">
    <feGaussianBlur
       stdDeviation="3.1247207"
       id="feGaussianBlur19" />
  </filter>
  <linearGradient
     id="e"
     gradientUnits="userSpaceOnUse"
     x1=".37741"
     x2=".37741"
     y1="5.214652"
     y2="3.309088">
    <stop
       offset="0"
       stop-color="#34608f"
       id="stop22" />
    <stop
       offset="1"
       stop-color="#34608f"
       stop-opacity="0"
       id="stop24" />
  </linearGradient>
  <linearGradient
     id="f"
     gradientTransform="matrix(.21345221 0 0 .1138394 -11.411169 -103.22724)"
     gradientUnits="userSpaceOnUse"
     x1="124.01234"
     x2="124.01234"
     y1="966.51019"
     y2="935.34326">
    <stop
       offset="0"
       id="stop27" />
    <stop
       offset="1"
       stop-color="#34608f"
       stop-opacity="0"
       id="stop29" />
  </linearGradient>
  <linearGradient
     id="g"
     gradientUnits="userSpaceOnUse"
     x1="55"
     x2="55"
     y1="1036.4132"
     y2="1032.4822">
    <stop
       offset="0"
       stop-color="#003d7b"
       id="stop32" />
    <stop
       offset="1"
       stop-color="#003d7b"
       stop-opacity="0"
       id="stop34" />
  </linearGradient>
  <filter
     id="h"
     color-interpolation-filters="sRGB"
     height="1.697208"
     width="1.027888"
     x="-.013944"
     y="-.348604">
    <feGaussianBlur
       stdDeviation=".70882694"
       id="feGaussianBlur37" />
  </filter>
  <filter
     id="i"
     color-interpolation-filters="sRGB"
     height="1.869989"
     width="1.027669"
     x="-.013834"
     y="-.434994">
    <feGaussianBlur
       stdDeviation=".70324038"
       id="feGaussianBlur40" />
  </filter>
  <clipPath
     id="k">
    <rect
       height="102.29915"
       ry="1.433656"
       width="120"
       x="5.93629"
       y="48"
       id="rect46" />
  </clipPath>
  <filter
     id="l">
    <feGaussianBlur
       stdDeviation="2.028"
       id="feGaussianBlur49" />
  </filter>
  <filter
     id="m">
    <feGaussianBlur
       stdDeviation="2.7153804"
       id="feGaussianBlur52" />
  </filter>
  <linearGradient
     id="n"
     gradientTransform="matrix(.94173025 0 0 .94148681 3.516276 3.145731)"
     gradientUnits="userSpaceOnUse"
     x1="47.236164"
     x2="72"
     y1="22.150356"
     y2="116.40091">
    <stop
       offset="0"
       stop-color="#eeecec"
       id="stop55" />
    <stop
       offset=".40000001"
       stop-color="#f4f4f4"
       id="stop57" />
    <stop
       offset="1"
       stop-color="#f6f5f5"
       id="stop59" />
  </linearGradient>
  <radialGradient
     id="o"
     cx="68.138977"
     cy="89.42041"
     fx="67.932365"
     fy="72.691223"
     gradientTransform="matrix(1.5860719 -.07936281 .06485072 1.2953772 -41.872296 -14.425457)"
     gradientUnits="userSpaceOnUse"
     r="47.5"
     xlink:href="#p" />
  <linearGradient
     id="p">
    <stop
       offset="0"
       stop-color="#fff"
       id="stop63" />
    <stop
       offset="1"
       stop-color="#fff"
       stop-opacity="0"
       id="stop65" />
  </linearGradient>
  <clipPath
     id="q">
    <path
       d="m17.000001 8 .782827 110h57.5c1.675283 0 3.119418.18058 4.9-1.6 8.797935-8.79794 21.481402-23.383226 28.739972-30.707378 2.44056-2.462612 2.80096-4.47117 2.80096-6.724043l-1.72376-70.968579z"
       id="path68" />
  </clipPath>
  <filter
     id="r"
     color-interpolation-filters="sRGB"
     height="2.025501"
     width="1.957419"
     x="-.478709"
     y="-.512751">
    <feGaussianBlur
       stdDeviation="10.140743"
       id="feGaussianBlur71" />
  </filter>
  <filter
     id="s"
     height="1.2101"
     width="1.169467"
     x="-.084733"
     y="-.10505">
    <feGaussianBlur
       stdDeviation="2.1734796"
       id="feGaussianBlur74" />
  </filter>
  <linearGradient
     id="t"
     gradientTransform="matrix(1.3344708 0 0 1.3640502 -37.238647 -42.998247)"
     gradientUnits="userSpaceOnUse"
     x1="82.15696"
     x2="94.220871"
     y1="90.381706"
     y2="102.18401">
    <stop
       offset="0"
       stop-color="#fcfcfc"
       id="stop77" />
    <stop
       offset=".52275378"
       stop-color="#f8f8f8"
       id="stop79" />
    <stop
       offset=".72337759"
       stop-color="#f0efef"
       id="stop81" />
    <stop
       offset=".89024991"
       stop-color="#e3e1e1"
       id="stop83" />
    <stop
       offset="1"
       stop-color="#cecbcb"
       id="stop85" />
  </linearGradient>
  <radialGradient
     id="u"
     cx="90.750004"
     cy="110.252967"
     gradientUnits="userSpaceOnUse"
     r="24.501278"
     xlink:href="#p" />
  <clipPath
     id="v">
    <path
       d="m112 82.502986c0 4.465301-2.79749 6.409952-5.27972 8.093625-5.10854 3.46508-14.939114 3.32536-20.720284 3.40638-.081 5.781159.16586 15.504599-3.29922 20.613139-1.68367 2.48224-5.29051 5.38687-8.20078 5.38687 2.31803 0 4.74284-1.33476 7.58402-4.08481 9.14197-8.84873 17.36714-16.13535 25.673154-25.297529 1.91895-2.116745 4.24283-3.641881 4.24283-8.117675z"
       id="path89" />
  </clipPath>
  <filter
     id="w"
     color-interpolation-filters="sRGB">
    <feGaussianBlur
       stdDeviation=".43040059"
       id="feGaussianBlur92" />
  </filter>
  <g
     transform="matrix(0.125,0,0,0.125,0,-1)"
     id="g30">
    <path
       style="opacity:0.5;filter:url(#a-3)"
       inkscape:connector-curvature="0"
       d="M 85.480617,232.8761 H 201.77668 c 1.02599,0 1.85197,0.97507 1.85197,2.18627 V 342.1184 c 0,1.21119 -0.82598,2.18627 -1.85197,2.18627 H 85.480617 c -1.025991,0 -1.85197,-0.97508 -1.85197,-2.18627 V 235.06237 c 0,-1.2112 0.825979,-2.18627 1.85197,-2.18627 z"
       transform="matrix(1,0,0,0.9333333,-79.62865,-205.35102)"
       id="path12" />
    <path
       style="fill:url(#b-6)"
       inkscape:connector-curvature="0"
       d="M 7.999997,16 H 120 v 96 H 7.999997 Z"
       id="path14" />
    <path
       style="fill:#ffffff;fill-opacity:0.756881"
       inkscape:connector-curvature="0"
       d="m 78.20266,37.61897 v -2.7448 z"
       id="path16" />
    <path
       style="fill:#ffffff"
       inkscape:connector-curvature="0"
       d="m 8,48 h 112 v 64 H 8 Z"
       id="path18" />
    <g
       style="fill:#cacacc"
       id="g28">
      <path
         inkscape:connector-curvature="0"
         d="M 7.999997,88 H 120 v 8 H 7.999997 Z"
         id="path20" />
      <path
         inkscape:connector-curvature="0"
         d="M 7.999997,64 H 120 v 8 H 7.999997 Z"
         id="path22" />
      <path
         inkscape:connector-curvature="0"
         d="m 40,48 h 8 v 64 h -8 z"
         id="path24" />
      <path
         inkscape:connector-curvature="0"
         d="m 80,48 h 8 v 64 h -8 z"
         id="path26" />
    </g>
  </g>
  <g
     id="g979">
    <path
       sodipodi:nodetypes="sssccss"
       style="opacity:0.55428598;filter:url(#i)"
       inkscape:connector-curvature="0"
       id="path95"
       transform="matrix(0.125,0,0,0.125,6.748904,12.35751)"
       d="m -14.991243,21.139915 82.000024,5e-6 c 2.216,0 4,0.8652 4,1.94 0,1.0747 -1.78433,1.902 -4,1.94 -36.945183,0.6329 -42.703067,0.778195 -82.000024,-5e-6 -2.215566,-0.044 -4,-0.8653 -4,-1.94 0,-1.0748 1.784,-1.94 4,-1.94 z" />
    <rect
       style="opacity:0.57714299;fill:url(#g);filter:url(#h)"
       id="rect97"
       y="1038.8262"
       x="33"
       width="92"
       transform="matrix(0.125,0,0,0.25614775,-0.125,-251.09298)"
       ry="0"
       rx="2.4399951"
       height="1.952052" />
    <path
       sodipodi:nodetypes="sscsssssscss"
       style="fill:#3b6ca9"
       inkscape:connector-curvature="0"
       id="path99"
       d="M 4.5,5 C 4,5 4,5.3826937 4,5.5 V 7 l -10e-8,2.9999993 c 0,0.5539997 0.446,0.9999997 1,0.9999997 L 15,11 c 0.554,0 1,-0.446 1,-1 l 0,-2.9999993 c 0,-0.554 -0.446,-0.9999999 -1,-1 L 9.9042969,6 C 9.8200959,5.5140493 9.7262959,5 9.5,5 Z" />
    <path
       sodipodi:nodetypes="ccccc"
       style="fill:#fcf9e9"
       inkscape:connector-curvature="0"
       id="path101"
       d="m 4.9999999,5.9999993 h 3 v 0.9999999 h -3 z" />
    <path
       sodipodi:nodetypes="sscscccccccccssscss"
       style="opacity:0.25;fill:url(#c)"
       inkscape:connector-curvature="0"
       id="path103"
       d="m 4.4999999,4.9999993 c -0.5,0 -0.5,0.3826937 -0.5,0.5 v 1.5 3 c 0,0.5539997 0.446,0.9999997 1,0.9999997 v -3.9999997 -1 h 3.8828125 c 0.013345,0.068527 0.023996,0.094239 0.037109,0.1699219 0.082673,0.4792195 0.4980774,0.8295107 0.9843754,0.8300781 H 11 L 15,7 v 4 c 0.554,0 1,-0.446 1,-1 V 7 C 16,6.446 15.554,6.0000001 15,6 l -5.0957032,-7e-7 c -0.084201,-0.4859507 -0.178001,-1 -0.4042969,-1 z" />
    <path
       sodipodi:nodetypes="ccccc"
       style="fill:#fbc66d"
       inkscape:connector-curvature="0"
       id="path105"
       d="M 7,6 H 8 V 6.9999999 H 7 Z" />
    <path
       sodipodi:nodetypes="ccccssscc"
       style="fill:#16375b;fill-opacity:0.80147101;filter:url(#d)"
       inkscape:connector-curvature="0"
       id="path129"
       transform="matrix(0.14830504,0,0,0.14830504,-0.59322,-134.2721)"
       d="m 52.642896,969.59356 -21.67146,-0.15854 0,43.84898 80.914314,-0.02 v -47.08616 c 0,-2.54081 -2.05959,-4.58387 -4.62097,-4.58387 l -42.621884,-10e-6 c -9.375263,0 -5.067235,7.84799 -12,8 z"
       clip-path="url(#clipPath961)" />
    <path
       sodipodi:nodetypes="cccsssssssc"
       style="fill:url(#a)"
       inkscape:connector-curvature="0"
       id="path131"
       d="m 4.9999999,9.9999993 h 2.5 l 1,-1 L 15,9 c 0.554,10e-8 1,0.446 1,1 v 4 c 0,0.554 -0.446,1 -1,1 l -10.0000001,-10e-7 c -0.554,0 -1,-0.446 -1,-1 v -3 c 0,-0.554 0.5673986,-1.3460808 1,-0.9999997 z" />
    <path
       sodipodi:nodetypes="ccssccccscssc"
       style="fill:#a4c0e8"
       inkscape:connector-curvature="0"
       id="path133"
       d="m 8.4999999,8.9999993 -1,1 h -2.5 c -0.554,0 -1,0.4459997 -1,0.9999997 v 1 c 0,-0.554 0.5673987,-1.346081 1,-1 h 2.5 l 1,-0.9999997 L 15,10 c 0.554,0 1,0.446 1,1 V 10 C 16,9.446 15.554,9 15,9 Z" />
    <path
       sodipodi:nodetypes="ccccc"
       style="fill:#385da4"
       inkscape:connector-curvature="0"
       id="path135"
       d="M 3.9999999,11.999999 16,12 v 1 l -12.0000001,-10e-7 z" />
    <path
       sodipodi:nodetypes="cccccc"
       style="fill:url(#b)"
       inkscape:connector-curvature="0"
       id="path137"
       d="M 3.9999999,11.999999 H 11 L 16,12 v 1 l -12.0000001,-10e-7 z" />
    <path
       sodipodi:nodetypes="ccccc"
       style="fill:#a4c0e8"
       inkscape:connector-curvature="0"
       id="path139"
       d="M 3.9999999,12.999999 16,13 v 0.5 l -12.0000001,-10e-7 z" />
    <path
       sodipodi:nodetypes="sccccccs"
       style="opacity:0.59428603;fill:url(#e)"
       inkscape:connector-curvature="0"
       id="path141"
       d="m 4.9999999,9.9999993 c -0.5505375,0 -0.9925198,0.4410517 -0.9980469,0.9902347 v 3.019531 c 2.3e-4,0.02285 0.011948,0.042 0.013672,0.06445 0.038109,0.321065 0.7510484,0.923754 0.984375,0.925784 3.916e-4,3e-6 0.00156,0 0.00195,0 V 9.9999993 Z" />
    <path
       sodipodi:nodetypes="ccssc"
       style="opacity:0.40571403;fill:url(#f)"
       inkscape:connector-curvature="0"
       id="path143"
       d="m 15,9 v 6 c 0.554,0 1,-0.446 1,-1 V 10 C 16,9.446 15.554,9 15,9 Z" />
  </g>
</svg>
